src/assets/icon/Icon=talk.svg

<svg width="16" height="16" viewBox="0 0 16 16" fill="none" xmlns="http://www.w3.org/2000/svg">
<path d="M4.44444 15C4.32767 15.0001 4.21201 14.9787 4.1041 14.937C3.99618 14.8952 3.89813 14.8339 3.81556 14.7566C3.73299 14.6793 3.66752 14.5875 3.6229 14.4865C3.57828 14.3855 3.5554 14.2772 3.55556 14.1679V11.4498C2.5551 11.2548 1.65633 10.7446 1.00926 10.0042C0.36218 9.2638 0.00594364 8.33807 0 7.38149V5.16039C0.00125491 4.05735 0.469911 2.99982 1.30313 2.21985C2.13636 1.43988 3.26609 1.00117 4.44444 1H11.5556C12.7339 1.00117 13.8636 1.43988 14.6969 2.21985C15.5301 2.99982 15.9987 4.05735 16 5.16039V7.37927C15.9984 8.48222 15.5297 9.53958 14.6965 10.3195C13.8634 11.0994 12.7338 11.5382 11.5556 11.5397H9.09511L5.02163 14.7992C4.86077 14.928 4.6561 14.9988 4.44444 14.9989V15ZM4.44444 2.66527C3.73749 2.66615 3.05976 2.92943 2.55987 3.39737C2.05997 3.86531 1.77872 4.49973 1.77778 5.1615V7.38038C1.78043 8.03497 2.05657 8.66261 2.54715 9.12909C3.03773 9.59557 3.70381 9.86387 4.40296 9.87661C4.64209 9.87828 4.87152 9.96531 5.04442 10.1199C5.21732 10.2746 5.32066 10.4852 5.33333 10.7087V12.3618L8.18963 10.0763C8.35044 9.94746 8.55514 9.87663 8.76682 9.87661H11.5556C12.2625 9.87573 12.9402 9.61246 13.4401 9.14451C13.94 8.67657 14.2213 8.04215 14.2222 7.38038V5.1615C14.2216 4.49954 13.9405 3.86484 13.4406 3.39665C12.9406 2.92847 12.2627 2.66504 11.5556 2.66416H4.44444V2.66527Z" fill="black"/>
</svg>

<svg xmlns="http://www.w3.org/2000/svg" width="16" height="16" fill="none" viewBox="0 0 16 16"><path fill="#000" d="M4.444 15a.943.943 0 0 1-.34-.063.895.895 0 0 1-.288-.18.83.83 0 0 1-.193-.27.785.785 0 0 1-.067-.32V11.45c-1-.195-1.9-.705-2.547-1.446A4.02 4.02 0 0 1 0 7.381v-2.22C.001 4.056.47 3 1.303 2.22A4.608 4.608 0 0 1 4.444 1h7.112a4.608 4.608 0 0 1 3.14 1.22C15.53 3 16 4.057 16 5.16v2.22a4.039 4.039 0 0 1-1.303 2.94 4.609 4.609 0 0 1-3.141 1.22h-2.46L5.021 14.8a.925.925 0 0 1-.578.199V15zm0-12.335a2.764 2.764 0 0 0-1.884.732 2.421 2.421 0 0 0-.782 1.765V7.38c.002.655.279 1.283.77 1.75.49.466 1.156.734 1.855.747.24.001.469.088.641.243a.856.856 0 0 1 .29.589v1.653l2.856-2.286a.92.92 0 0 1 .577-.2h2.789c.707 0 1.384-.264 1.884-.731.5-.468.781-1.103.782-1.765V5.162c0-.662-.281-1.297-.781-1.765a2.766 2.766 0 0 0-1.885-.733H4.444v.001z"/></svg>
